X: 109
U:~=!turn!
M:C
L:1/8
K:Gm
d | B<B, B,/B,/B, F>B,D<d | B>B, D/B/d c>AB>G | F>B, B,/B,/B, F>B,D<B | C<C D>F G2-G :| d | B>fd<f F<BD>d | B<fd>f Tg>Bf<d |


